svgs/sharp-solid/circle-m.svg

<svg xmlns="http://www.w3.org/2000/svg" viewBox="0 0 512 512"><!--! Font Awesome Pro 6.6.0 by @fontawesome - https://fontawesome.com License - https://fontawesome.com/license (Commercial License) Copyright 2024 Fonticons, Inc. --><path d="M256 512A256 256 0 1 0 256 0a256 256 0 1 0 0 512zM128 152l0-24 36.3 0 7.2 9.9L256 255l84.5-117.1 7.2-9.9 36.3 0 0 24 0 208 0 24-48 0 0-24 0-133.8-60.5 83.8L256 337l-19.5-26.9L176 226.2 176 360l0 24-48 0 0-24 0-208z"/></svg>

<svg xmlns="http://www.w3.org/2000/svg" viewBox="0 0 512 512"><!--! Font Awesome Pro 6.4.0 by @fontawesome - https://fontawesome.com License - https://fontawesome.com/license (Commercial License) Copyright 2023 Fonticons, Inc. --><path d="M256 512A256 256 0 1 0 256 0a256 256 0 1 0 0 512zM128 152V128h36.3l7.2 9.9L256 255l84.5-117.1 7.2-9.9H384v24V360v24H336V360 226.2l-60.5 83.8L256 337l-19.5-26.9L176 226.2V360v24H128V360 152z"/></svg>
